X:1
T:A.W. Berthoff's Reel
M:C
L:1/8
Q:80
C:Michael Grey
S:Reel
K:HP
[| g|
{a}d{e}G{d}Bgag{a}ed|
{g}ed{g}B{d}A{g}B{d}B{e}Bg|
{a}d{e}G{d}Bgag{a}ed|  !
{g}ed{c}dB{g}A{d}A{e}Ag{a}d{e}G{d}Bgag{a}ed|
{g}ed{g}B{d}A{g}B{d}B{e}Bg|
{a}d{e}Ggeaf{a}gd|  !
{g}ed{c}dB{g}A{d}A{e}A|] [|
g|
{a}d{e}G{gf}g2ad{a}gd|
{g}eagage{g}dB|  !
{g}d{e}G{gf}g2af{a}gd|
{g}ed{c}dB{g}A{d}A{e}Ag{a}d{e}G{gf}g2ad{a}gd|
{g}eagage{g}dB|  !
{g}d{e}Ggeaf{a}gd|
{g}ed{c}dB{g}A{d}A{e}A|] [|
g|  !
{a}B{d}G{g}Bd{g}de{g}d{e}B|
{g}ed{g}B{d}A{g}B{d}B{e}Bg|
{a}B{d}G{g}Bd{g}de{A}eg|  !
{a}ed{c}dB{g}A{d}A{e}Ag{a}B{d}G{g}Bd{g}de{g}d{e}B|
{g}ed{g}B{d}A{g}B{d}B{e}Bg|
{a}d{e}Ggeaf{a}gd|  !
{g}ed{c}dB{g}A{d}A{e}A|] [|
g|
{ag}a2eg{a}dB{g}eg|
{a}Ggae{g}B{d}B{e}Bg|  !
{a}d{e}G{gf}g2af{a}gd|
{g}ed{c}dB{g}A{d}A{e}Ag{ag}a2eg{a}dB{g}eg|
{a}Ggae{g}B{d}B{e}Bg|  !
{a}d{e}Ggeaf{a}gd|
{g}ed{c}dB{g}A{d}A{e}A|]

